X: 04059
T: McCUTCHEON'S QUADRILLE
C: Bob McQuillen 13 July 79
B: Bob's Note Book 04 #59
%R: polka, march, reel
Z: 2020 John Chambers <jc:trillian.mit.edu>
M: C
L: 1/4
K: D
FG \
| Ad d>c | BA D>E | FA AF | ED fe | d>e d>c | BA d>B | AB AF | FE FG |
| Ad d>c | BA2 D/E/ | FA A>F | ED2 f/e/ | d>e d>c | BA FD | ED D>E | D2 ||
|| FG \
| AF DF/A/ | BA F>G | Ad d>c | BA2 B | Ad d>e | fd dd/e/ | fa gf | e2 FG |
| AF DA | BA2 F/G/ | Ad d>c | BA2 B | Ad d>e | fa a>g | fe dc | d2 |]
%%begintext align
%% John McCutcheon of Dungannon, Virginia,
%% is truly one of the great people in my life.
%% This tune is for you, Johnny, with love
%% always and manh thanks, and special
%% memories of "The Yellow Rose of Texas"!
%%endtext

%%sep 1 1 500

%%sep 1 1 500

